assets/ai/ai-inaturalist-square.svg

<svg xmlns="http://www.w3.org/2000/svg" width="100%" height="100%" viewBox="-75.52 -43.52 599.04 599.04"><path d="M 48 32 C 21.5 32 0 53.5 0 80 L 0 432 C 0 458.5 21.5 480 48 480 L 400 480 C 426.5 480 448 458.5 448 432 L 448 80 C 448 53.5 426.5 32 400 32 L 48 32 z M 178.50781 96 C 186.63363 97.525769 206.63377 109.4878 214.25391 114.26562 C 224.72506 120.8308 238.76232 130.85792 247.30664 139.62891 C 259.10301 151.73917 268.00584 166.41236 275.50391 181.44336 C 281.17979 192.82125 288.21506 211.4435 288.36328 224.16406 C 288.38943 226.64018 289.03449 232.97876 285.56445 233.37109 C 282.45188 233.72856 275.01524 224.7672 272.66992 222.42188 C 261.85003 211.60199 250.02724 201.64457 237.79492 192.45508 L 210.14844 171.77344 C 200.85431 161.9562 195.48255 150.2127 190.53906 137.84961 C 186.01406 126.53275 180.19052 107.9446 178.50781 96 z M 43.367188 132.61914 L 83.474609 138.35547 C 129.518 146.65566 174.97621 163.07318 214.25391 188.71484 C 231.50818 199.9881 248.4307 213.0226 262.83398 227.80078 L 276.15625 241.58398 C 278.10052 243.47593 281.2052 246.57237 284.00391 246.94727 C 287.5001 247.40065 290.05427 244.0428 291.9375 241.60156 L 306.49805 220.67773 C 319.42785 204.68766 339.01781 193.89256 359.85547 193.64844 L 372.0625 193.64844 C 379.22054 193.65715 389.44736 195.21907 396.47461 196.83203 C 398.77635 197.36387 403.8252 198.15602 404.54883 200.78906 C 405.35096 203.71854 400.17174 206.72661 398.21875 208.30469 C 391.42689 213.76259 387.7729 218.96931 384.07617 226.78125 C 372.48904 251.24589 373.40506 284.57727 359.58594 314.83984 C 336.8389 364.6497 296.45349 399.03499 243.02539 411.7207 C 227.71537 415.35638 212.47518 416.15965 196.81641 415.97656 C 184.89797 415.83706 167.27875 412.53992 155.83984 409.01758 C 151.53281 407.70104 144.68736 406.56028 141.88867 402.89844 C 170.60802 401.58191 203.57474 383.24595 223.8457 363.62891 C 228.8415 358.79003 238.15208 347.65639 242.23242 341.86719 C 243.7582 339.69623 246.8789 335.13687 246.0332 332.37305 C 244.78642 328.27527 238.52766 328.75416 235.17969 328.78906 L 213.38281 330.5332 C 180.36515 330.91682 159.16054 316.63455 138.03516 292.16992 C 133.30091 286.68587 125.27228 278.66492 122.70898 272.11719 L 149.73633 267.13086 L 165.42969 265.14258 C 144.33919 260.88786 112.74256 245.19487 97.423828 230.25977 C 91.468965 224.45311 84.755851 218.12268 81.730469 210.21484 C 91.617459 207.35511 101.12859 206.61322 111.37305 206.72656 C 117.71153 206.80506 120.60781 208.5662 127.06836 206.72656 C 120.86065 204.43355 106.09856 194.77413 100.03906 190.74609 C 84.990609 180.72833 72.009751 172.61116 59.0625 159.64648 C 51.485961 152.06121 44.369832 143.7529 43.367188 132.61914 z M 354.79492 211.41797 C 354.45826 211.42435 354.11137 211.44364 353.75391 211.47852 C 342.6463 215.88146 348.98364 228.42011 357.24023 226.38867 C 365.68646 224.31933 365.23135 211.22004 354.79492 211.41797 z"/></svg>

<svg xmlns="http://www.w3.org/2000/svg" width="100%" height="100%" viewBox="-75.52 -43.52 599.04 599.04"><path d="M48 32C21.5 32 0 53.5 0 80v352c0 26.5 21.5 48 48 48h352c26.5 0 48-21.5 48-48V80c0-26.5-21.5-48-48-48H48zm130.508 64c8.126 1.526 28.126 13.488 35.746 18.266 10.471 6.565 24.508 16.592 33.053 25.363 11.796 12.11 20.699 26.783 28.197 41.814 5.676 11.378 12.711 30 12.86 42.721.025 2.476.67 8.815-2.8 9.207-3.112.358-10.549-8.604-12.894-10.95-10.82-10.819-22.643-20.776-34.875-29.966l-27.647-20.682c-9.294-9.817-14.665-21.56-19.609-33.923-4.525-11.317-10.348-29.905-12.031-41.85zm-135.14 36.62l40.107 5.735c46.043 8.3 91.501 24.718 130.779 50.36 17.254 11.273 34.177 24.308 48.58 39.086l13.322 13.783c1.945 1.892 5.05 4.988 7.848 5.363 3.496.454 6.05-2.904 7.933-5.345l14.561-20.924c12.93-15.99 32.52-26.785 53.357-27.03h12.207c7.159.01 17.385 1.571 24.413 3.184 2.301.532 7.35 1.324 8.074 3.957.802 2.93-4.377 5.938-6.33 7.516-6.792 5.458-10.446 10.664-14.143 18.476-11.587 24.465-10.67 57.796-24.49 88.059-22.747 49.81-63.133 84.195-116.56 96.88-15.31 3.636-30.55 4.44-46.21 4.257-11.918-.14-29.537-3.437-40.976-6.96-4.307-1.316-11.153-2.457-13.951-6.119 28.719-1.316 61.686-19.652 81.957-39.27 4.995-4.838 14.306-15.972 18.386-21.76 1.526-2.172 4.647-6.731 3.801-9.495-1.247-4.098-7.505-3.619-10.853-3.584l-21.797 1.744c-33.018.384-54.222-13.898-75.348-38.363-4.734-5.484-12.763-13.505-15.326-20.053l27.027-4.986 15.694-1.988c-21.09-4.255-52.687-19.948-68.006-34.883-5.955-5.807-12.668-12.137-15.694-20.045 9.887-2.86 19.399-3.602 29.643-3.488 6.339.078 9.235 1.84 15.695 0-6.207-2.293-20.97-11.953-27.029-15.98-15.048-10.019-28.03-18.136-40.977-31.1-7.576-7.586-14.692-15.894-15.695-27.028zm311.427 78.798c-.337.006-.684.026-1.041.06-11.108 4.403-4.77 16.942 3.486 14.91 8.446-2.069 7.991-15.168-2.445-14.97z"/></svg>
